X:120 
T:Mangan's Fancy (reel)
F:file ID: cre.5/120mang_f
B:CRE5.182 (Aoibhneas UÃÂÃÂÃÂÃÂ­ MhongÃÂÃÂÃÂÃÂ¡in)
M:4/4
%%Q:180
R:reel
K:D
F|AddB cAFB|AdFA GE~E2|DFAc BAFB|ABde fd dB|
AddB cAFB|AdFA GE~E2|DFAc BAFA|Bdeg fdd||
e|dfag afef|dfec BdcA|dfaf gfec|Bdeg fd~d2|
AddB cAFB|dfec BdcA|GB~B2 FA~A2|Bdeg fdd2|]

%%%

